X: 1232
T: BELVIDERE WALTZ
B: Oliver Ditson "The Boston Collection of Instrumental Music" 1910 p.123 #2
F: http://conquest.imslp.info/files/imglnks/usimg/8/8f/IMSLP175643-PMLP309456-bostoncollection00bost_bw.pdf
%: 2012 John Chambers <jc:trillian.mit.edu>
M: 3/8
L: 1/16
K: F
%%slurgraces 0
A>B |\
c4 {A}a>g | gff2 (3Acf | fee2 (3Gce | g>ff2 A>B |\
c4 {A}a>g | gff2 (3Acf | fee2 (3Gce | f4 H:|
|: c2 |\
(Bc)(Gc)(Bc) | (Acfc).a2 | (bagf).e.g | (gfed).c2 |\
(Bc)(Gc)(Bc) | (Acfc).a2 | (bagf).e.g | f4 :|
|: c'2 |\
c'4a2 | a4gf | (eg) c2(eg) | ac'f2c2 |\
c'4a2 | a4(gf) | (eg).c2 (eg) | f4 "^D.C.":|

%%sep 1 1 500
%%sep 1 1 500
